src/resources/assets/movie-colorful.svg

<svg width="480" height="480" xmlns="http://www.w3.org/2000/svg"><defs><linearGradient x1="12.252%" y1="50%" x2="100%" y2="50%" id="a"><stop stop-color="#EEE" stop-opacity=".19" offset="0%"/><stop stop-color="#FFF" offset="100%"/></linearGradient><linearGradient x1="12.252%" y1="50%" x2="100%" y2="50%" id="b"><stop stop-color="#EEE" stop-opacity=".19" offset="0%"/><stop stop-color="#FFF" offset="100%"/></linearGradient></defs><g transform="translate(20 32)" fill="none" fill-rule="evenodd"><g fill="#EA94EF"><path d="M231.858238,399.420331 C322.306846,418.825809 436.264537,322.879976 438.197623,207.482922 C432.751123,94.3001304 343.399347,-0.805100111 222.14208,0.00513921086 C100.884813,0.815378533 21.0866157,119.893649 15.8026956,207.482922 C9.6355912,307.280257 108.645644,389.250765 231.858238,399.420331 Z" opacity=".2"/><path d="M194.117647,415.317432 C298.441178,419.928417 390.528293,324.223948 388.235294,238.900126 C377.37391,127.203317 301.325863,39.3632784 194.117647,47.0951088 C86.9094309,54.8269393 2.84217094e-14,133.811658 2.84217094e-14,223.512415 C2.85822416,295.058588 90.7620466,402.91958 194.117647,415.317432 Z" opacity=".3"/><path d="M207.923106,378.451963 C329.175142,399.419058 412.859954,307.792275 412.38677,207.196851 C419.925706,112.254378 303.590533,9.60386334 196.305556,13.0339825 C83.9119772,13.0339825 14.3454351,98.7560049 15.544671,188.495495 C21.6579476,237.084688 48.4126179,360.782064 207.923106,378.451963 Z" opacity=".4"/><path d="M193.181639,374.498124 C301.535358,396.142754 386.312217,368.733672 385.130088,207.216628 C361.237788,87.0872792 272.503537,44.9778587 201.882353,45.6749686 C73.4910599,50.7488836 23.7231619,120.224662 18.6346022,207.216628 C27.247047,258.653672 77.0609229,362.210048 193.181639,374.498124 Z" opacity=".4"/><path d="M195.43098,335.609755 C298.698602,321.770596 368.302145,258.816499 369.99012,186.110465 C382.856623,81.0748083 305.703532,23.4231811 203.195686,28.8409875 C111.063078,50.3047747 59.4969389,107.241076 46.754193,186.110465 C46.6357003,254.066277 36.5053399,362.539179 195.43098,335.609755 Z" opacity=".6"/></g><circle fill="url(#a)" cx="196.5" cy="209.5" r="77.5"/><path d="M287,163.358141 C307.461846,154.581271 335.852007,153.166316 345.703217,170.296263 C355.392291,187.13705 352.024557,206.948434 335.602033,229.725515 L330.06978,237.453279 C321.225376,249.57236 315.902779,258.903912 314.106597,265.43496 C312.307823,271.972062 313.270855,278.473993 316.99195,284.940174 C321.905605,293.487273 329.793024,297.047724 340.662849,295.633058 L340.662849,295.633058 C346.56603,294.896174 350.060479,295.47363 351.149938,297.365714 C352.762959,300.171695 352.080139,302.441158 349.103782,304.162283 C343.085405,307.651812 335.745739,307.923099 327.081615,304.975853 C318.416628,302.022841 312.101624,297.106537 308.135451,290.209929 C298.314479,273.133317 302.830133,253.233426 321.684717,230.509391 L324.985062,226.524569 C341.109806,207.090276 345.070219,190.237669 336.861981,175.960983 C333.184372,169.571199 323.922097,167.407829 313.679799,167.790974 C305.936661,168.073792 297.666217,169.830666 290.789348,172.28262" fill="url(#b)"/><path d="M195.119408,106 C235.575898,106 270.532123,129.622457 287.064851,163.866684 L290.850419,172.78108 C294.973459,183.903341 297.235363,195.932419 297.235363,208.497408 C297.235363,265.109408 251.517113,311 195.119408,311 C138.721415,311 93,265.109408 93,208.497408 C93,151.890593 138.721415,106 195.119408,106 Z M195.305149,235.746835 C183.145832,235.746835 173.29,245.624561 173.29,257.80707 C173.29,269.989281 183.145832,279.860759 195.305149,279.860759 C207.464466,279.860759 217.32,269.989281 217.32,257.80707 C217.32,245.624561 207.464466,235.746835 195.305149,235.746835 Z M148.685149,189.037975 C136.525832,189.037975 126.67,198.914071 126.67,211.094937 C126.67,223.275505 136.525832,233.151899 148.685149,233.151899 C160.844466,233.151899 170.7,223.275505 170.7,211.094937 C170.7,198.914071 160.844466,189.037975 148.685149,189.037975 Z M241.925149,189.037975 C229.765534,189.037975 219.91,198.914071 219.91,211.094937 C219.91,223.275505 229.765534,233.151899 241.925149,233.151899 C254.084466,233.151899 263.94,223.275505 263.94,211.094937 C263.94,198.914071 254.084466,189.037975 241.925149,189.037975 Z M192.714847,202.012658 C187.707802,202.012658 183.65,206.081132 183.65,211.094937 C183.65,216.108741 187.707802,220.177215 192.714847,220.177215 C197.722198,220.177215 201.78,216.108741 201.78,211.094937 C201.78,206.081132 197.722198,202.012658 192.714847,202.012658 Z M195.305149,139.734177 C183.145832,139.734177 173.29,149.605656 173.29,161.788165 C173.29,173.970673 183.145832,183.848101 195.305149,183.848101 C207.464466,183.848101 217.32,173.970673 217.32,161.788165 C217.32,149.605656 207.464466,139.734177 195.305149,139.734177 Z" fill="#FFF" fill-rule="nonzero"/></g></svg>

<svg width="480" height="480" xmlns="http://www.w3.org/2000/svg"><defs><linearGradient x1="12.252%" y1="50%" x2="100%" y2="50%" id="a"><stop stop-color="#EEE" stop-opacity=".19" offset="0%"/><stop stop-color="#FFF" offset="100%"/></linearGradient><linearGradient x1="12.252%" y1="50%" x2="100%" y2="50%" id="b"><stop stop-color="#EEE" stop-opacity=".19" offset="0%"/><stop stop-color="#FFF" offset="100%"/></linearGradient></defs><g transform="translate(20 32)" fill="none" fill-rule="evenodd"><g fill="#EA94EF"><path d="M231.858 399.42c90.449 19.406 204.407-76.54 206.34-191.937C432.75 94.3 343.399-.805 222.142.005 100.885.815 21.087 119.894 15.802 207.483 9.637 307.28 108.647 389.25 231.859 399.42z" opacity=".2"/><path d="M194.118 415.317c104.323 4.611 196.41-91.093 194.117-176.417-10.861-111.697-86.91-199.537-194.117-191.805C86.909 54.827 0 133.812 0 223.512 2.858 295.06 90.762 402.92 194.118 415.317z" opacity=".3"/><path d="M207.923 378.452c121.252 20.967 204.937-70.66 204.464-171.255C419.926 112.254 303.59 9.604 196.306 13.034c-112.394 0-181.96 85.722-180.761 175.461 6.113 48.59 32.868 172.287 192.378 189.957z" opacity=".4"/><path d="M193.182 374.498c108.353 21.645 193.13-5.764 191.948-167.281-23.892-120.13-112.626-162.24-183.248-161.542-128.39 5.074-178.159 74.55-183.247 161.542 8.612 51.437 58.426 154.993 174.547 167.281z" opacity=".4"/><path d="M195.431 335.61c103.268-13.84 172.871-76.794 174.56-149.5C382.856 81.075 305.703 23.423 203.195 28.841c-92.133 21.464-143.7 78.4-156.442 157.27-.118 67.955-10.249 176.428 148.677 149.499z" opacity=".6"/></g><circle fill="url(#a)" cx="196.5" cy="209.5" r="77.5"/><path d="M287 163.358c20.462-8.777 48.852-10.192 58.703 6.938 9.69 16.841 6.322 36.652-10.101 59.43l-5.532 7.727c-8.845 12.12-14.167 21.45-15.963 27.982-1.8 6.537-.836 13.039 2.885 19.505 4.914 8.547 12.801 12.108 23.67 10.693 5.904-.737 9.398-.16 10.488 1.733 1.613 2.806.93 5.075-2.046 6.796-6.019 3.49-13.358 3.761-22.022.814-8.665-2.953-14.98-7.87-18.947-14.766-9.82-17.077-5.305-36.977 13.55-59.7l3.3-3.985c16.125-19.435 20.085-36.287 11.877-50.564-3.678-6.39-12.94-8.553-23.182-8.17-7.743.283-16.014 2.04-22.89 4.492" fill="url(#b)"/><path d="M195.12 106c40.456 0 75.412 23.622 91.945 57.867l3.785 8.914c4.123 11.122 6.385 23.151 6.385 35.716C297.235 265.11 251.517 311 195.12 311 138.721 311 93 265.11 93 208.497 93 151.891 138.721 106 195.12 106zm.185 129.747c-12.16 0-22.015 9.878-22.015 22.06 0 12.182 9.856 22.054 22.015 22.054 12.16 0 22.015-9.872 22.015-22.054 0-12.182-9.856-22.06-22.015-22.06zm-46.62-46.709c-12.16 0-22.015 9.876-22.015 22.057 0 12.18 9.856 22.057 22.015 22.057 12.16 0 22.015-9.876 22.015-22.057 0-12.18-9.856-22.057-22.015-22.057zm93.24 0c-12.16 0-22.015 9.876-22.015 22.057 0 12.18 9.856 22.057 22.015 22.057 12.16 0 22.015-9.876 22.015-22.057 0-12.18-9.856-22.057-22.015-22.057zm-49.21 12.975c-5.007 0-9.065 4.068-9.065 9.082 0 5.014 4.058 9.082 9.065 9.082s9.065-4.068 9.065-9.082c0-5.014-4.058-9.082-9.065-9.082zm2.59-62.279c-12.16 0-22.015 9.872-22.015 22.054 0 12.183 9.856 22.06 22.015 22.06 12.16 0 22.015-9.877 22.015-22.06 0-12.182-9.856-22.054-22.015-22.054z" fill="#FFF" fill-rule="nonzero"/></g></svg>
